src/helpers/heroicons/outline/lock-open.svg

<svg width="24" height="24" viewBox="0 0 24 24" fill="none" xmlns="http://www.w3.org/2000/svg">
<path d="M13.5 10.5V6.75C13.5 4.26472 15.5147 2.25 18 2.25C20.4853 2.25 22.5 4.26472 22.5 6.75V10.5M3.75 21.75H14.25C15.4926 21.75 16.5 20.7426 16.5 19.5V12.75C16.5 11.5074 15.4926 10.5 14.25 10.5H3.75C2.50736 10.5 1.5 11.5074 1.5 12.75V19.5C1.5 20.7426 2.50736 21.75 3.75 21.75Z"  stroke-width="1.5" stroke-linecap="round" stroke-linejoin="round"/>
</svg>

<svg xmlns="http://www.w3.org/2000/svg" fill="none" viewBox="0 0 24 24" stroke-width="1.5" stroke="currentColor" aria-hidden="true" data-slot="icon">
  <path stroke-linecap="round" stroke-linejoin="round" d="M13.5 10.5V6.75a4.5 4.5 0 1 1 9 0v3.75M3.75 21.75h10.5a2.25 2.25 0 0 0 2.25-2.25v-6.75a2.25 2.25 0 0 0-2.25-2.25H3.75a2.25 2.25 0 0 0-2.25 2.25v6.75a2.25 2.25 0 0 0 2.25 2.25Z"/>
</svg>
